X:066
T:Sgian Dubh
T:Sghean Dhu
S:Kerr's Merry Melodies Bk.2
Z:Nigel Gatherer
M:6/8
L:1/8
K:D
D/C/|B,2B B2F|AFA ECA,|B,2B B2F|Bcd c2B|B,2B B2F|AFA ECA,|
D3 E3|FDB, B,2:||e|f2B Bcd|cBA ecA|f2B Bcd|fge fdB|
f2B Bcd|cBA ecA|def edc|fdB B2e|f2B Bcd|cBA ecA|
f2B Bcd|fge fdB|faf eae|cea ecA|DEF EFG|FDB, B,2|]
